!!!!SEGMENT: pl-wumfc--r282--002-011_paderewski-ignacy-jan--exercises-2-exercise-11.krn
!!!cenid: 18xx:3186
!!!COM: Paderewski, Ignacy Jan
!!!COM-rismID:
!!!CDT: 1860/11/18-1941/06/29
!!!CNT: Polish
!!!GTL: [Exercises 2]
!!!OTL: [Exercise] 11
!!!OMV: 011
!!!PDT:
!!!AGN:
!!!SMS-siglum: PL-Wumfc
!!!SMS-shelfmark: R282
!!!SMS-shelfwork: 002-011 G
!!!SMS-variant:
!!!SMS-altvar:
!!!NIFC-rismSourceID: 1001158933
!!!NIFC-islandoraID: pl-wumfc:419
!!!URL-pdf-islandora: https://repozytorium.nifc.pl/islandora/object/pl-wumfc%3A419/datastream/PDF/view
!!!URL-scan: https://polish.musicsources.pl/pl/lokalizacje/galeria/rekopisy/4702 @EN{Scan on Polish Music Herritage in Open Access Website} @PL{Skany w portalu Dziedzictwo Muzyki Polskiej w otwartym dostępie}
!!!ONB-nifc: UWAGA: druga grupa ćwiczeń od skanu 0008
!!!AIN: 2 piano
!!!key: G
**kern	**kern
*part2	*part1
*group1	*group1
*staff2	*staff1
*I"[Pianoforte]	*I"[Pianoforte]
*I'	*I'
*Ipiano	*Ipiano
*ICklav	*ICklav
*clefF4	*clefG2
*k[f#]	*k[f#]
*G:	*G:
*M	*M
*	*^
!!LO:TX:t=P:problem:brak kluczy na początku ćwiczenia
!	!LO:TX:a:t=C. f	!
4GG\	2.g/	2.g\
4G\	.	.
4F#\	.	.
=1	=1	=1
4E\	2.b/	2.g\
4BB\	.	.
4C\	.	.
4D\	2.a/	2.f#\
4E\	.	.
4F#\	.	.
4G\	2.b/	2.e\
4F#\	.	.
4G\	.	.
4B\	2.dd/	2.d\
4A\	.	.
4B\	.	.
=2	=2	=2
4G\	[<2.ee/	2.g\
4e\	.	.
4d\	.	.
4c\	2.ee/]	2.a\
4B\	.	.
4c\	.	.
2.d;\	2.dd;/	2.b;\
4g\	2.dd/	2.b\
4f#\	.	.
4g\	.	.
=3	=3	=3
4e\	2.gg/	2.b\
4B\	.	.
4c\	.	.
4d\	[2.ff#/	2.b\
4D\	.	.
4E\	.	.
!	!LO:N:vis=2	!
4F#\	2.ff#/]	2.a\
4G\	.	.
4A\	.	.
!	!LO:N:vis=2	!
4B\	2.gg/	2.g\
4e\	.	.
4d\	.	.
=4	=4	=4
!	!LO:N:vis=2	!
4c\	2.ee/	2.cc\
4E\	.	.
4F#\	.	.
!	!LO:N:vis=2	!
4G\	2.dd/	2.b\
4A\	.	.
4B\	.	.
2.c\	2.cc;/	2.a\
4c\	2.ee/	2.g\
4B\	.	.
4c\	.	.
=5	=5	=5
4A\	2.ff#/	2.a\
4d\	.	.
4c\	.	.
4B\	2.gg/	2.b\
4A\	.	.
4G\	.	.
4F#\	2.aa/	2.a\
4E\	.	.
4F#\	.	.
4G\	[2.ee/	2.g\
4A\	.	.
4B\	.	.
=6	=6	=6
!	!LO:N:vis=2	!
4c\	2.ee/]	2.e\
4B\	.	.
4c\	.	.
!	!LO:N:vis=2	!
4d\	2.dd/	2.f#\
4B\	.	.
4A\	.	.
2.G;\	2.b;/	2.g;\
2.d\	4dd/	2.dd\
.	4ee/	.
.	4ff#/	.
!!linebreak:original
=7	=7	=7
2.e\	4gg/	2.b\
.	4aa/	.
.	4gg/	.
2.B\	4ff#/	2.dd\
.	4gg/	.
.	4ff#/	.
2.c\	4ee/	[2.a\
.	4aa/	.
.	4gg/	.
2.A\	4ff#/	2.a\]
.	4ee/	.
.	4ff#/	.
=8	=8	=8
!LO:N:vis=2	!	!
2.G\	4gg/	2.b\
.	4dd/	.
.	4ee/	.
!LO:N:vis=2	!	!
2.D\	4ff#/	2.a\
.	4ee/	.
.	4ff#/	.
!LO:N:vis=2	!	!LO:TX:t=P:problem:fermata nad główką nuty, na pięciolinii
2.G\	2.gg;/	2.g;>\
*	*v	*v
==	==
*-	*-
!!!system-decoration: [(g1)]
!!!RDF**kern: > = above
!!!RDF**kern: < = below
!!!ENC: Katarzyna Serwa
!!!END: 2021-11-16
!!!ENC: Anastazja Marusiak
!!!END: 2021-11-12
